img/heart.svg

<svg width="40" height="40" viewBox="0 0 40 40" fill="none" xmlns="http://www.w3.org/2000/svg">
<mask id="mask0_248_45" style="mask-type:alpha" maskUnits="userSpaceOnUse" x="0" y="0" width="40" height="40">
<rect width="40" height="40" fill="#D9D9D9"/>
</mask>
<g mask="url(#mask0_248_45)">
<path d="M20 35.0001L17.5833 32.8334C14.7778 30.3056 12.4583 28.1251 10.625 26.2917C8.79167 24.4584 7.33334 22.8123 6.25 21.3534C5.16667 19.8956 4.41 18.5556 3.98 17.3334C3.54889 16.1112 3.33334 14.8612 3.33334 13.5834C3.33334 10.9723 4.20834 8.79175 5.95834 7.04175C7.70834 5.29175 9.88889 4.41675 12.5 4.41675C13.9444 4.41675 15.3194 4.7223 16.625 5.33341C17.9306 5.94453 19.0556 6.80564 20 7.91675C20.9444 6.80564 22.0694 5.94453 23.375 5.33341C24.6806 4.7223 26.0556 4.41675 27.5 4.41675C30.1111 4.41675 32.2917 5.29175 34.0417 7.04175C35.7917 8.79175 36.6667 10.9723 36.6667 13.5834C36.6667 14.8612 36.4517 16.1112 36.0217 17.3334C35.5906 18.5556 34.8333 19.8956 33.75 21.3534C32.6667 22.8123 31.2083 24.4584 29.375 26.2917C27.5417 28.1251 25.2222 30.3056 22.4167 32.8334L20 35.0001ZM20 30.5001C22.6667 28.1112 24.8611 26.0623 26.5833 24.3534C28.3056 22.6456 29.6667 21.1601 30.6667 19.8967C31.6667 18.6323 32.3611 17.5067 32.75 16.5201C33.1389 15.5345 33.3333 14.5556 33.3333 13.5834C33.3333 11.9167 32.7778 10.5279 31.6667 9.41675C30.5556 8.30564 29.1667 7.75008 27.5 7.75008C26.1944 7.75008 24.9861 8.11786 23.875 8.85341C22.7639 9.59008 22 10.5279 21.5833 11.6667H18.4167C18 10.5279 17.2361 9.59008 16.125 8.85341C15.0139 8.11786 13.8056 7.75008 12.5 7.75008C10.8333 7.75008 9.44445 8.30564 8.33334 9.41675C7.22222 10.5279 6.66667 11.9167 6.66667 13.5834C6.66667 14.5556 6.86111 15.5345 7.25 16.5201C7.63889 17.5067 8.33334 18.6323 9.33334 19.8967C10.3333 21.1601 11.6944 22.6456 13.4167 24.3534C15.1389 26.0623 17.3333 28.1112 20 30.5001Z" fill="#1C1B1F"/>
</g>
</svg>

<svg width="40" height="40" fill="none" xmlns="http://www.w3.org/2000/svg"><mask id="a" style="mask-type:alpha" maskUnits="userSpaceOnUse" x="0" y="0" width="40" height="40"><path fill="#D9D9D9" d="M0 0h40v40H0z"/></mask><g mask="url(#a)"><path d="M20 35l-2.417-2.167c-2.805-2.527-5.125-4.708-6.958-6.541-1.833-1.834-3.292-3.48-4.375-4.939-1.083-1.457-1.84-2.797-2.27-4.02a11.196 11.196 0 01-.647-3.75c0-2.61.875-4.791 2.625-6.541s3.93-2.625 6.542-2.625c1.444 0 2.82.305 4.125.916A9.881 9.881 0 0120 7.917a9.881 9.881 0 013.375-2.584 9.615 9.615 0 014.125-.916c2.611 0 4.792.875 6.542 2.625s2.625 3.93 2.625 6.541c0 1.278-.215 2.528-.645 3.75-.431 1.223-1.189 2.563-2.272 4.02-1.083 1.46-2.542 3.105-4.375 4.939-1.833 1.833-4.153 4.014-6.958 6.541L20 35zm0-4.5c2.667-2.389 4.861-4.438 6.583-6.147 1.723-1.707 3.084-3.193 4.084-4.456 1-1.265 1.694-2.39 2.083-3.377.389-.986.583-1.964.583-2.937 0-1.666-.555-3.055-1.666-4.166-1.111-1.111-2.5-1.667-4.167-1.667a6.437 6.437 0 00-3.625 1.103c-1.111.737-1.875 1.675-2.292 2.814h-3.166c-.417-1.14-1.18-2.077-2.292-2.814A6.437 6.437 0 0012.5 7.75c-1.667 0-3.056.556-4.167 1.667-1.11 1.11-1.666 2.5-1.666 4.166 0 .973.194 1.951.583 2.937.389.987 1.083 2.112 2.083 3.377 1 1.263 2.361 2.749 4.084 4.456 1.722 1.71 3.916 3.758 6.583 6.147z" fill="#1C1B1F"/></g></svg>
